images/portal/4305.svg

<?xml version="1.0" standalone="no"?><!DOCTYPE svg PUBLIC "-//W3C//DTD SVG 1.1//EN" "http://www.w3.org/Graphics/SVG/1.1/DTD/svg11.dtd"><svg xmlns:xlink="http://www.w3.org/1999/xlink" version="1.1" class="highcharts-root" style="font-family:arial;font-size:9pt;" xmlns="http://www.w3.org/2000/svg" width="485" height="415"><desc>Created with Highstock 5.0.14</desc><defs><clipPath id="highcharts-n1iamxa-7"><rect x="0" y="0" width="425" height="254" fill="none"></rect></clipPath><clipPath id="highcharts-n1iamxa-8"><rect x="0" y="0" width="425" height="254" fill="none"></rect></clipPath></defs><rect fill="#fbfbfb" class="highcharts-background" x="0" y="0" width="485" height="415" rx="0" ry="0"></rect><rect fill="none" class="highcharts-plot-background" x="50" y="90" width="425" height="254"></rect><g class="highcharts-label" style="cursor:pointer;" transform="translate(10,451)"><text x="0" y="0"><tspan>&gt; Indikator-Details</tspan></text></g><g class="highcharts-pane-group"></g><g class="highcharts-grid highcharts-xaxis-grid "><path fill="none" class="highcharts-grid-line" d="M 110.5 90 L 110.5 344" opacity="1"></path><path fill="none" class="highcharts-grid-line" d="M 170.5 90 L 170.5 344" opacity="1"></path><path fill="none" class="highcharts-grid-line" d="M 231.5 90 L 231.5 344" opacity="1"></path><path fill="none" class="highcharts-grid-line" d="M 292.5 90 L 292.5 344" opacity="1"></path><path fill="none" class="highcharts-grid-line" d="M 353.5 90 L 353.5 344" opacity="1"></path><path fill="none" class="highcharts-grid-line" d="M 413.5 90 L 413.5 344" opacity="1"></path><path fill="none" class="highcharts-grid-line" d="M 474.5 90 L 474.5 344" opacity="1"></path><path fill="none" class="highcharts-grid-line" d="M 49.5 90 L 49.5 344" opacity="1"></path></g><g class="highcharts-grid highcharts-yaxis-grid "><path fill="none" stroke="#e6e6e6" stroke-width="1" class="highcharts-grid-line" d="M 50 344.5 L 475 344.5" opacity="1"></path><path fill="none" stroke="#e6e6e6" stroke-width="1" class="highcharts-grid-line" d="M 50 281.5 L 475 281.5" opacity="1"></path><path fill="none" stroke="#e6e6e6" stroke-width="1" class="highcharts-grid-line" d="M 50 217.5 L 475 217.5" opacity="1"></path><path fill="none" stroke="#e6e6e6" stroke-width="1" class="highcharts-grid-line" d="M 50 154.5 L 475 154.5" opacity="1"></path><path fill="none" stroke="#e6e6e6" stroke-width="1" class="highcharts-grid-line" d="M 50 89.5 L 475 89.5" opacity="1"></path></g><g class="highcharts-grid highcharts-yaxis-grid "></g><rect fill="none" class="highcharts-plot-border" x="50" y="90" width="425" height="254"></rect><g class="highcharts-axis highcharts-xaxis "><path fill="none" class="highcharts-axis-line" stroke="#ccd6eb" stroke-width="1" d="M 50 344.5 L 475 344.5"></path></g><g class="highcharts-axis highcharts-yaxis "><path fill="none" class="highcharts-axis-line" d="M 50 90 L 50 344"></path></g><g class="highcharts-axis highcharts-yaxis "><path fill="none" class="highcharts-axis-line" d="M 475 90 L 475 344"></path></g><g class="highcharts-series-group"><g class="highcharts-series highcharts-series-0 highcharts-column-series highcharts-color-undefined " transform="translate(50,90) scale(1 1)" clip-path="url(#highcharts-n1iamxa-8)"><rect x="14" y="253" width="15" height="2" fill="#FF8028" class="highcharts-point"></rect><rect x="75" y="253" width="15" height="2" fill="#FF8028" class="highcharts-point"></rect><rect x="135" y="253" width="15" height="2" fill="#FF8028" class="highcharts-point"></rect><rect x="196" y="253" width="15" height="2" fill="#FF8028" class="highcharts-point"></rect><rect x="257" y="253" width="15" height="2" fill="#FF8028" class="highcharts-point"></rect><rect x="318" y="253" width="15" height="2" fill="#FF8028" class="highcharts-point"></rect><rect x="378" y="253" width="15" height="2" fill="#FF8028" class="highcharts-point"></rect></g><g class="highcharts-markers highcharts-series-0 highcharts-column-series highcharts-color-undefined " transform="translate(50,90) scale(1 1)" clip-path="none"></g><g class="highcharts-series highcharts-series-1 highcharts-column-series highcharts-color-undefined " transform="translate(50,90) scale(1 1)" clip-path="url(#highcharts-n1iamxa-8)"><rect x="32" y="65" width="15" height="190" fill="#B375AB" class="highcharts-point"></rect><rect x="93" y="57" width="15" height="198" fill="#B375AB" class="highcharts-point"></rect><rect x="154" y="49" width="15" height="206" fill="#B375AB" class="highcharts-point"></rect><rect x="214" y="47" width="15" height="208" fill="#B375AB" class="highcharts-point"></rect><rect x="275" y="42" width="15" height="213" fill="#B375AB" class="highcharts-point"></rect><rect x="336" y="39" width="15" height="216" fill="#B375AB" class="highcharts-point"></rect><rect x="396" y="37" width="15" height="218" fill="#B375AB" class="highcharts-point"></rect></g><g class="highcharts-markers highcharts-series-1 highcharts-column-series highcharts-color-undefined " transform="translate(50,90) scale(1 1)" clip-path="none"></g></g><text x="10" text-anchor="start" class="highcharts-title" style="color:#000000;font-size:1.1em;font-weight:bold;fill:#000000;" y="20"><tspan>Kantonale Unterschutzstellungen</tspan></text><text x="10" text-anchor="start" class="highcharts-subtitle" style="color:#000000;font-size:0.9em;fill:#000000;" y="38"><tspan>Prozent (der Kantonsfläche)</tspan></text><g class="highcharts-legend" transform="translate(10,40)"><rect fill="none" class="highcharts-legend-box" rx="0" ry="0" x="0" y="0" width="323" height="38" visibility="visible"></rect><g><g><g class="highcharts-legend-item highcharts-column-series highcharts-color-undefined highcharts-series-0" transform="translate(12,7)"><text x="21" style="color:#333333;font-size:1em;font-weight:normal;cursor:pointer;fill:#333333;" text-anchor="start" y="15"><tspan>Kanton Basel-Stadt</tspan></text><rect x="2" y="4" width="12" height="12" fill="#FF8028" class="highcharts-point"></rect></g><g class="highcharts-legend-item highcharts-column-series highcharts-color-undefined highcharts-series-1" transform="translate(156.328125,7)"><text x="21" y="15" style="color:#333333;font-size:1em;font-weight:normal;cursor:pointer;fill:#333333;" text-anchor="start"><tspan>Kanton Basel-Landschaft</tspan></text><rect x="2" y="4" width="12" height="12" fill="#B375AB" class="highcharts-point"></rect></g></g></g></g><g class="highcharts-axis-labels highcharts-xaxis-labels "><text x="80.35714285714286" style="color:#000000;cursor:default;font-size:0.9em;fill:#000000;" text-anchor="middle" transform="translate(0,0)" y="363" opacity="1">2010</text><text x="141.07142857142858" style="color:#000000;cursor:default;font-size:0.9em;fill:#000000;" text-anchor="middle" transform="translate(0,0)" y="363" opacity="1">2011</text><text x="201.78571428571428" style="color:#000000;cursor:default;font-size:0.9em;fill:#000000;" text-anchor="middle" transform="translate(0,0)" y="363" opacity="1">2012</text><text x="262.50000000000006" style="color:#000000;cursor:default;font-size:0.9em;fill:#000000;" text-anchor="middle" transform="translate(0,0)" y="363" opacity="1">2013</text><text x="323.2142857142857" style="color:#000000;cursor:default;font-size:0.9em;fill:#000000;" text-anchor="middle" transform="translate(0,0)" y="363" opacity="1">2014</text><text x="383.92857142857144" style="color:#000000;cursor:default;font-size:0.9em;fill:#000000;" text-anchor="middle" transform="translate(0,0)" y="363" opacity="1">2015</text><text x="444.64285714285717" style="color:#000000;cursor:default;font-size:0.9em;fill:#000000;" text-anchor="middle" transform="translate(0,0)" y="363" opacity="1">2016</text></g><g class="highcharts-axis-labels highcharts-yaxis-labels "><text x="35" style="color:#000000;cursor:default;font-size:0.9em;fill:#000000;" text-anchor="end" transform="translate(0,0)" y="349" opacity="1"><tspan>0%</tspan></text><text x="35" style="color:#000000;cursor:default;font-size:0.9em;fill:#000000;" text-anchor="end" transform="translate(0,0)" y="285" opacity="1"><tspan>2.5%</tspan></text><text x="35" style="color:#000000;cursor:default;font-size:0.9em;fill:#000000;" text-anchor="end" transform="translate(0,0)" y="222" opacity="1"><tspan>5%</tspan></text><text x="35" style="color:#000000;cursor:default;font-size:0.9em;fill:#000000;" text-anchor="end" transform="translate(0,0)" y="158" opacity="1"><tspan>7.5%</tspan></text><text x="35" style="color:#000000;cursor:default;font-size:0.9em;fill:#000000;" text-anchor="end" transform="translate(0,0)" y="95" opacity="1"><tspan>10%</tspan></text></g><g class="highcharts-axis-labels highcharts-yaxis-labels "></g><text x="10" class="highcharts-credits" text-anchor="start" style="cursor:default;color:#000000;font-size:0.8em;fill:#000000;" y="400"><tspan>Quelle: Stadtgärtnerei Basel-Stadt; Landwirtschaftliches Zentrum Ebenrain</tspan></text></svg>

<svg class="highcharts-root" xmlns="http://www.w3.org/2000/svg" width="485" height="415" font-family="arial" font-size="12">
    <defs>
        <clipPath id="a">
            <path fill="none" d="M0 0h425v254H0z"/>
        </clipPath>
    </defs>
    <rect fill="#fbfbfb" class="highcharts-background" width="485" height="415" rx="0" ry="0"/>
    <path fill="none" class="highcharts-plot-background" d="M50 90h425v254H50z"/>
    <text transform="translate(10 451)" class="highcharts-label" cursor="pointer">
        <tspan>&gt; Indikator-Details</tspan>
    </text>
    <g class="highcharts-grid highcharts-xaxis-grid">
        <path fill="none" class="highcharts-grid-line" d="M110.5 90v254m60-254v254m61-254v254m61-254v254m61-254v254m60-254v254m61-254v254M49.5 90v254"/>
    </g>
    <g class="highcharts-grid highcharts-yaxis-grid">
        <path fill="none" stroke="#e6e6e6" class="highcharts-grid-line" d="M50 344.5h425m-425-63h425m-425-64h425m-425-63h425m-425-65h425"/>
    </g>
    <path fill="none" class="highcharts-plot-border" d="M50 90h425v254H50z"/>
    <g class="highcharts-axis highcharts-xaxis">
        <path fill="none" class="highcharts-axis-line" stroke="#ccd6eb" d="M50 344.5h425"/>
    </g>
    <g class="highcharts-axis highcharts-yaxis">
        <path fill="none" class="highcharts-axis-line" d="M50 90v254"/>
    </g>
    <g class="highcharts-axis highcharts-yaxis">
        <path fill="none" class="highcharts-axis-line" d="M475 90v254"/>
    </g>
    <g class="highcharts-series-group">
        <g class="highcharts-series highcharts-series-0 highcharts-column-series highcharts-color-undefined" transform="translate(50 90)" clip-path="url(#a)">
            <path fill="#FF8028" class="highcharts-point" d="M14 253h15v2H14zm61 0h15v2H75zm60 0h15v2h-15zm61 0h15v2h-15zm61 0h15v2h-15zm61 0h15v2h-15zm60 0h15v2h-15z"/>
        </g>
        <g class="highcharts-series highcharts-series-1 highcharts-column-series highcharts-color-undefined" transform="translate(50 90)" clip-path="url(#a)">
            <path fill="#B375AB" class="highcharts-point" d="M32 65h15v190H32zm61-8h15v198H93zm61-8h15v206h-15zm60-2h15v208h-15zm61-5h15v213h-15zm61-3h15v216h-15zm60-2h15v218h-15z"/>
        </g>
    </g>
    <text x="10" class="highcharts-title" y="20" color="#000" font-size="1.1em" font-weight="700">
        <tspan>Kantonale Unterschutzstellungen</tspan>
    </text>
    <text x="10" class="highcharts-subtitle" y="38" color="#000" font-size=".9em">
        <tspan>Prozent (der Kantonsfläche)</tspan>
    </text>
    <g class="highcharts-legend" transform="translate(10 40)">
        <rect fill="none" class="highcharts-legend-box" rx="0" ry="0" width="323" height="38"/>
        <g class="highcharts-legend-item highcharts-column-series highcharts-color-undefined highcharts-series-0">
            <text x="21" y="15" color="#333" font-size="1em" font-weight="400" cursor="pointer" fill="#333" transform="translate(12 7)">
                <tspan>Kanton Basel-Stadt</tspan>
            </text>
            <path fill="#FF8028" class="highcharts-point" d="M14 11h12v12H14z"/>
        </g>
        <g class="highcharts-legend-item highcharts-column-series highcharts-color-undefined highcharts-series-1">
            <text x="21" y="15" color="#333" font-size="1em" font-weight="400" cursor="pointer" fill="#333" transform="translate(156.328 7)">
                <tspan>Kanton Basel-Landschaft</tspan>
            </text>
            <path fill="#B375AB" class="highcharts-point" d="M158.328 11h12v12h-12z"/>
        </g>
    </g>
    <g class="highcharts-axis-labels highcharts-xaxis-labels" text-anchor="middle" color="#000" cursor="default" font-size=".9em">
        <text x="80.357" y="363">
            2010
        </text>
        <text x="141.071" y="363">
            2011
        </text>
        <text x="201.786" y="363">
            2012
        </text>
        <text x="262.5" y="363">
            2013
        </text>
        <text x="323.214" y="363">
            2014
        </text>
        <text x="383.929" y="363">
            2015
        </text>
        <text x="444.643" y="363">
            2016
        </text>
    </g>
    <g class="highcharts-axis-labels highcharts-yaxis-labels" text-anchor="end" color="#000" cursor="default" font-size=".9em">
        <text x="35" y="349">
            <tspan>0%</tspan>
        </text>
        <text x="35" y="285">
            <tspan>2.5%</tspan>
        </text>
        <text x="35" y="222">
            <tspan>5%</tspan>
        </text>
        <text x="35" y="158">
            <tspan>7.5%</tspan>
        </text>
        <text x="35" y="95">
            <tspan>10%</tspan>
        </text>
    </g>
    <text x="10" class="highcharts-credits" y="400" cursor="default" color="#000" font-size=".8em">
        <tspan>Quelle: Stadtgärtnerei Basel-Stadt; Landwirtschaftliches Zentrum Ebenrain</tspan>
    </text>
</svg>
